svgs/thin/boxes-stacked.svg

<svg xmlns="http://www.w3.org/2000/svg" viewBox="0 0 576 512"><!--! Font Awesome Pro 6.6.0 by @fontawesome - https://fontawesome.com License - https://fontawesome.com/license (Commercial License) Copyright 2024 Fonticons, Inc. --><path d="M368 16c26.5 0 48 21.5 48 48l0 128c0 5.6-1 11-2.7 16l16.7 0c1.3-5.1 2-10.5 2-16l0-128c0-35.3-28.7-64-64-64L320 0 256 0 208 0c-35.3 0-64 28.7-64 64l0 128c0 5.5 .7 10.9 2 16l16.7 0c-1.8-5-2.7-10.4-2.7-16l0-128c0-26.5 21.5-48 48-48l32 0 0 64c0 17.7 14.3 32 32 32l32 0c17.7 0 32-14.3 32-32l0-64 32 0zM256 16l64 0 0 64c0 8.8-7.2 16-16 16l-32 0c-8.8 0-16-7.2-16-16l0-64zm52 478.5c11.5 10.9 27 17.5 44 17.5l160 0c35.3 0 64-28.7 64-64l0-144c0-35.3-28.7-64-64-64l-32 0-16 0-64 0-16 0-32 0c-20.2 0-38.3 9.4-50 24c3.4 4.7 6.4 9.8 8.9 15.1c8.4-13.9 23.7-23.2 41.1-23.2l32 0 0 64c0 17.7 14.3 32 32 32l32 0c17.7 0 32-14.3 32-32l0-64 32 0c26.5 0 48 21.5 48 48l0 144c0 26.5-21.5 48-48 48l-160 0c-14.9 0-28.2-6.8-37-17.4c-1.9 5.5-4.2 10.9-7 15.9zM400 256l64 0 0 64c0 8.8-7.2 16-16 16l-32 0c-8.8 0-16-7.2-16-16l0-64zM272 304l0 144c0 26.5-21.5 48-48 48L64 496c-26.5 0-48-21.5-48-48l0-144c0-26.5 21.5-48 48-48l32 0 0 64c0 17.7 14.3 32 32 32l32 0c17.7 0 32-14.3 32-32l0-64 32 0c26.5 0 48 21.5 48 48zM112 320l0-64 64 0 0 64c0 8.8-7.2 16-16 16l-32 0c-8.8 0-16-7.2-16-16zm112-80l-32 0-16 0-64 0-16 0-32 0c-35.3 0-64 28.7-64 64L0 448c0 35.3 28.7 64 64 64l160 0c35.3 0 64-28.7 64-64l0-144c0-35.3-28.7-64-64-64z"/></svg>

<svg xmlns="http://www.w3.org/2000/svg" viewBox="0 0 576 512"><!--! Font Awesome Pro 6.4.0 by @fontawesome - https://fontawesome.com License - https://fontawesome.com/license (Commercial License) Copyright 2023 Fonticons, Inc. --><path d="M368 16c26.5 0 48 21.5 48 48V192c0 5.6-1 11-2.7 16H430c1.3-5.1 2-10.5 2-16V64c0-35.3-28.7-64-64-64H320 256 208c-35.3 0-64 28.7-64 64V192c0 5.5 .7 10.9 2 16h16.7c-1.8-5-2.7-10.4-2.7-16V64c0-26.5 21.5-48 48-48h32V80c0 17.7 14.3 32 32 32h32c17.7 0 32-14.3 32-32V16l32 0zM256 16l64 0V80c0 8.8-7.2 16-16 16H272c-8.8 0-16-7.2-16-16V16zm52 478.5c11.5 10.9 27 17.5 44 17.5H512c35.3 0 64-28.7 64-64V304c0-35.3-28.7-64-64-64H480 464 400 384 352c-20.2 0-38.3 9.4-50 24c3.4 4.7 6.4 9.8 8.9 15.1c8.4-13.9 23.7-23.2 41.1-23.2h32v64c0 17.7 14.3 32 32 32h32c17.7 0 32-14.3 32-32V256h32c26.5 0 48 21.5 48 48V448c0 26.5-21.5 48-48 48H352c-14.9 0-28.2-6.8-37-17.4c-1.9 5.5-4.2 10.9-7 15.9zM400 256h64v64c0 8.8-7.2 16-16 16H416c-8.8 0-16-7.2-16-16V256zM272 304V448c0 26.5-21.5 48-48 48H64c-26.5 0-48-21.5-48-48V304c0-26.5 21.5-48 48-48H96v64c0 17.7 14.3 32 32 32h32c17.7 0 32-14.3 32-32V256h32c26.5 0 48 21.5 48 48zM112 320V256h64v64c0 8.8-7.2 16-16 16H128c-8.8 0-16-7.2-16-16zm112-80H192 176 112 96 64c-35.3 0-64 28.7-64 64V448c0 35.3 28.7 64 64 64H224c35.3 0 64-28.7 64-64V304c0-35.3-28.7-64-64-64z"/></svg>
